NotoEmoji/1f1f3-1f1fa.svg

<svg xmlns="http://www.w3.org/2000/svg" viewBox="0 0 36 36"><path fill="#FFE150" d="M32 5H4c-.205 0-.407.015-.604.045l-.004 1.754-2.73-.004C.244 7.427 0 8.185 0 9v18c0 2.209 1.791 4 4 4h28c2.209 0 4-1.791 4-4V9c0-2.209-1.791-4-4-4z"/><path fill="#00247D" d="M19 18V5H4c-.32 0-.604.045-.604.045l-.004 1.754-2.73-.004S.62 6.854.535 7C.195 7.589 0 8.272 0 9v9h19z"/><path fill="#FFF" d="M19 5h-2.331L12 8.269V5H7v2.569L3.396 5.045c-.614.094-1.19.325-1.672.665L6.426 9H4.69L.967 6.391c-.11.129-.211.262-.305.404L3.813 9H0v5h3.885L0 16.766V18h3.332L7 15.432V18h5v-3.269L16.668 18H19v-2.029L16.185 14H19V9h-2.814L19 7.029V5z"/><path fill="#CF1B2B" d="M11 5H8v5H0v3h8v5h3v-5h8v-3h-8z"/><path fill="#CF1B2B" d="M19 5h-1.461L12 8.879V9h1.571L19 5.198zm-17.276.71c-.281.195-.534.423-.757.681L4.69 9h1.735L1.724 5.71zM6.437 14L.734 18h1.727L7 14.822V14zM19 17.802v-1.22L15.313 14H13.57z"/><circle fill="#004A77" cx="9.5" cy="11.5" r="2.5"/><path fill="#FFE150" d="M9.5 8.966l.599 1.6 1.824.038-1.454 1.225.529 1.746L9.5 12.533l-1.498 1.042.529-1.746-1.454-1.225 1.824-.038zm-5.676 1.519l.246.707.748.016-.596.452.216.716-.614-.427-.614.427.217-.716-.597-.452.749-.016zm11.352 0l.246.707.748.016-.596.452.216.716-.614-.427-.614.427.216-.716-.596-.452.748-.016zM9.5 5.821l.246.707.748.016-.596.452.216.716-.614-.427-.614.427.217-.716-.597-.452.748-.016zm0 9.467l.246.707.748.015-.596.452.216.717-.614-.428-.614.428.217-.717-.597-.452.748-.015z"/></svg>

<svg viewBox="0 0 36 36" xmlns="http://www.w3.org/2000/svg"><path d="m32 5h-28c-.21 0-.41.02-.6.05v1.75h-2.73c-.43.63-.67 1.39-.67 2.2v18c0 2.21 1.79 4 4 4h28c2.21 0 4-1.79 4-4v-18c0-2.21-1.79-4-4-4z" fill="#ffe150"/><path d="m19 18v-13h-15c-.32 0-.6.05-.6.05v1.75h-2.73s-.05.05-.13.2c-.34.59-.54 1.27-.54 2v9z" fill="#00247d"/><path d="m19 5h-2.33l-4.67 3.27v-3.27h-5v2.57l-3.6-2.52c-.61.09-1.19.33-1.67.67l4.7 3.28h-1.74l-3.72-2.61c-.11.13-.21.26-.31.4l3.15 2.21h-3.81v5h3.89l-3.89 2.77v1.23h3.33l3.67-2.57v2.57h5v-3.27l4.67 3.27h2.33v-2.03l-2.82-1.97h2.82v-5h-2.81l2.81-1.97z" fill="#fff"/><path d="m11 5h-3v5h-8v3h8v5h3v-5h8v-3h-8z" fill="#cf1b2b"/><path d="m19 5h-1.46l-5.54 3.88v.12h1.57l5.43-3.8zm-17.28.71c-.28.2-.53.42-.76.68l3.73 2.61h1.74zm4.72 8.29-5.71 4h1.73l4.54-3.18v-.82zm12.56 3.8v-1.22l-3.69-2.58h-1.74z" fill="#cf1b2b"/><circle cx="9.5" cy="11.5" fill="#004a77" r="2.5"/><path d="m9.5 8.97.6 1.6 1.82.04-1.45 1.23.53 1.75-1.5-1.06-1.5 1.04.53-1.75-1.45-1.23 1.82-.04zm-5.68 1.52.25.71.75.02-.6.45.22.72-.61-.43-.61.43.22-.72-.6-.45.75-.02zm11.35 0 .25.71.75.02-.6.45.22.72-.61-.43-.61.43.22-.72-.6-.45.75-.02zm-5.67-4.67.25.71.75.02-.6.45.22.72-.61-.43-.61.43.22-.72-.6-.45.75-.02zm0 9.47.25.71.75.02-.6.45.22.72-.61-.43-.61.43.22-.72-.6-.45.75-.02z" fill="#ffe150"/></svg>
